X:1
T:Süsser als Honig
T:André Vierendeels
T:Melody by Georg Vogler (1625) (Soprano voice)
T:Source : Catechismus---Würzburg---J.Volmari---1652. Editor : André Vierendeels (01/10/17).
T:Notes: Original clef C1, other voices supplied editorially Original note values have been halved Text Middle German 
T:Süsser als Honig
T:©
T:©
C:André Vierendeels
Z:©
%%score [ 1 2 3 ]
L:1/8
Q:1/4=120
M:2/2
K:F
V:1 treble nm="Soprano" snm="S"
V:2 treble-8 nm="Tenor" snm="T"
V:3 bass nm="Bass" snm="B"
V:1
"^1)" G4 G2 G2 | B4 d2 c2- | c2 B2 A4 | z2 A2 A2 A2 | A3 =B c2 _B2- | B2 c2 A4 | G4 G2 G2 | %7
w: Süs- ser als|Ho- nig ist|_ dein Nahm,|Ma- ri- a|Jung- * fraw Tu-|* gend- sam,|ein Fraw heist|
w: Die Him- mel|lie- ben dei-|* ne Zier,|der höl- lisch|Hauff _ zit- tert|_ vor dir:|Dein Nahm heist|
 B4 d2 c2- | c2 B2 A4 | z2 A2 A2 A2 | A3 =B c2 _B2- | B2 c2 A4 | d4 A2 F2 | G3 A B2 c2- | cBAG A4 | %15
w: er erts- lich|_ sehr fein|der Men- schen|und _ der En-|* gel rein:|Ein Kö- ni-|gin der gan- tzen|_ _ _ _ Erd,|
w: ein Er- leuch-|* te- rin|die- weil duch|dich _ ein Leicht|_ und Schein,|wird al- len|Men- schen mit- ge-|* * * * theilt,|
 A4 B2 d2 | c4 G2 B2 | A4 !fermata!G4 |] %18
w: und Him- mel,|bist Ma- ri-|a werth.|
w: von Eng- glen|in der Se-|lig- keit.|
V:2
"^2)""^1)" B4 c2 c2 | d4 d2 e2- | e2 d2 f4 | e4 f2 f2 | c4 A2 d2- | d2 G2 F4 | B4 c2 c2 | %7
w: Süs- ser als|Hö- nig ist|_ dein Nahm,|Ma- ri- a|Jung- fraw Tu-|* gend- sam,|ein Fraw heist|
w: Ein Meer- stern|wirst du auch|_ ge- nandt,|durch wel- chen|man si- cher|_ zu Land,|an- fah- ren|
 d4 d2 e2- | e2 d2 f4 | e4 f2 f2 | c4 A2 d2- | d2 G2 F4 | A4 e2 c2 | e4 d2 e2 | A4 d4 | %15
w: er erts- lich|_ sehr fein|der Men- schen|und der En-|* gel rein:|Ein Kö- ni-|gin der gan-|tzen Erd|
w: thut, wann sich|_ auff- macht|das wild Meer,|mit Ge- totz|_ und Kracht,|wer solt dir|nicht er- zei-|gen Ehr,|
 d2 f2 d2 G2 | A4 G2 d2- | d2 A2 !fermata!=B4 |] %18
w: und Him- * mel|bist Ma- ri-|* a werth.|
w: weil dein Nahm heist|ein Gna- *|* den Meer?|
V:3
"^3)""^1)""^4)" G,4 E,2 C,2 | G,,4 B,,2 C,2- | C,2 G,,2 D,4 | A,,4 D,2 D,2 | A,,2 E,2 F,2 B,,2 | %5
w: Süs- ser als|Hö- nig ist|_ dein Nahm,|Ma- ri- a|Jung- * fraw Tu-|
w: Ein tieff und|vol- les Tu-|* gend Meer,|ein Ab- grund|al- ler Ga- *|
 G,,2 C,2 D,4 | G,4 E,2 C,2 | G,,4 B,,2 C,2- | C,2 G,,2 D,4 | A,,4 D,2 D,2 | A,,2 E,2 F,2 B,,2 | %11
w: * gend- sam,|ein Fraw heist|er erts- lich|_ sehr fein|der men- schen|und der En- *|
w: * ben swehr,|in wel- ches|von dem Him-|* mel fallt,|was Got- tes|Au- gen wol- *|
 G,,2 C,2 D,4 | D,4 C,2 F,,2 | C,4 G,,2 C,2 | F,4 D,4 | F,4 G,2 D,2 | F,4 C,2 G,2 | %17
w: * gel rein;|Ein Kö- ni-|gin der gan-|tzen Erd|und Mim- mel|bist Ma- ri-|
w: * ge- fallt,|ein Meer voll|Süsz und Lieb-|lig- keit,|der hei- li-|gen Drey- fal-|
 D,4 !fermata!G,,4 |] %18
w: a werth.|
w: tig- keit.-|

